development/symbols/media-vk.svg

<svg height="28" viewBox="0 0 28 28" width="28" xmlns="http://www.w3.org/2000/svg"><path clip-rule="evenodd" d="m13.7104 21.4409h1.6174s.4853-.0556.7327-.315c.2283-.2409.2188-.6949.2188-.6949s-.0285-2.1124.9705-2.4182c.9895-.3057 2.2645 2.0383 3.6155 2.9371 1.0181.6856 1.7983.5373 1.7983.5373l3.606-.0463s1.8839-.1112.9895-1.5565c-.0761-.1205-.5233-1.0655-2.6831-3.0204-2.2645-2.0476-1.96-1.7141.7707-5.2533 1.6555-2.15877 2.3215-3.46514 2.1122-4.03031-.1998-.53737-1.4177-.3984-1.4177-.3984l-4.0627.0278s-.3044-.03706-.5233.09265c-.2188.12971-.3615.42619-.3615.42619s-.647 1.66771-1.5033 3.08527c-1.8078 2.9926-2.5309 3.1501-2.8259 2.9648-.685-.4355-.5137-1.7418-.5137-2.6683 0-2.89999.4471-4.10444-.8754-4.41946-.4376-.10191-.7707-.17603-1.8934-.1853-1.4462-.01853-2.6736 0-3.3681.33355-.46624.22236-.81828.7134-.59944.7412.2664.03706.87534.15751 1.19884.5837.4186.5559.3996 1.78815.3996 1.78815s.2379 3.40956-.5614 3.83576c-.5518.2872-1.30345-.3058-2.91141-3.0204-.82777-1.38979-1.44621-2.92779-1.44621-2.92779s-.12369-.28722-.33301-.44472c-.25689-.1853-.62796-.24089-.62796-.24089l-3.8534.02779s-.580384.01853-.789704.25942c-.190291.22236-.019029.66709-.019029.66709s3.025623 6.8839 6.441353 10.3583c3.13977 3.1872 6.69827 2.9741 6.69827 2.9741z" fill-rule="evenodd"/></svg>

<svg width="28" height="28" viewBox="0 0 28 28" xmlns="http://www.w3.org/2000/svg">
<path fill-rule="evenodd" clip-rule="evenodd" d="M13.7104 21.4409H15.3278C15.3278 21.4409 15.8131 21.3853 16.0605 21.1259C16.2888 20.885 16.2793 20.431 16.2793 20.431C16.2793 20.431 16.2508 18.3186 17.2498 18.0128C18.2393 17.7071 19.5143 20.0511 20.8653 20.9499C21.8834 21.6355 22.6636 21.4872 22.6636 21.4872L26.2696 21.4409C26.2696 21.4409 28.1535 21.3297 27.2591 19.8844C27.183 19.7639 26.7358 18.8189 24.576 16.864C22.3115 14.8164 22.616 15.1499 25.3467 11.6107C27.0022 9.45193 27.6682 8.14556 27.4589 7.58039C27.2591 7.04302 26.0412 7.18199 26.0412 7.18199L21.9785 7.20979C21.9785 7.20979 21.6741 7.17273 21.4552 7.30244C21.2364 7.43215 21.0937 7.72863 21.0937 7.72863C21.0937 7.72863 20.4467 9.39634 19.5904 10.8139C17.7826 13.8065 17.0595 13.964 16.7645 13.7787C16.0795 13.3432 16.2508 12.0369 16.2508 11.1104C16.2508 8.21041 16.6979 7.00596 15.3754 6.69094C14.9378 6.58903 14.6047 6.51491 13.482 6.50564C12.0358 6.48711 10.8084 6.50564 10.1139 6.83919C9.64766 7.06155 9.29562 7.55259 9.51446 7.58039C9.78086 7.61745 10.3898 7.7379 10.7133 8.16409C11.1319 8.71999 11.1129 9.95224 11.1129 9.95224C11.1129 9.95224 11.3508 13.3618 10.5515 13.788C9.9997 14.0752 9.24805 13.4822 7.64009 10.7676C6.81232 9.37781 6.19388 7.83981 6.19388 7.83981C6.19388 7.83981 6.07019 7.55259 5.86087 7.39509C5.60398 7.20979 5.23291 7.1542 5.23291 7.1542L1.37951 7.18199C1.37951 7.18199 0.799126 7.20052 0.589806 7.44141C0.399515 7.66377 0.570777 8.1085 0.570777 8.1085C0.570777 8.1085 3.5964 14.9924 7.01213 18.4668C10.1519 21.654 13.7104 21.4409 13.7104 21.4409Z"/>
</svg>
